X:1
T:Resurexit quid queritis
T:introtius II in: Rhau, Officium paschalis (1539)
T:music: Johan Walter 1496 - 1570
T:text: Luke 24,5-7
%%score [ 1 2 3 4 ]
L:1/8
Q:1/4=120
M:4/4
K:F
V:1 treble nm="Midi_69"
V:2 treble nm="Midi_66"
V:3 treble nm="Midi_70"
V:4 treble nm="Midi_71"
V:1
 G2 G2 B2 G2 B4 B2 G2 B2 G4 |[M:4/2] G8 G8 | B8 A8 | B8 c8 x4 | c8 B8 x4 | B8 A8 x2 | B8 c8 | %7
w: Re- sur * * re- xi * * *|Quid que-|ri- *|tis vi-|ven- tem|cum mor||
 B8 c8 x4 | c8 B8 x8 | G8 B8 x3/4 | A8 A4 c4 x2 | c2 B2 B8 A4 | B8 z8 | B,8 C8 | B,8 B,8 | %15
w: tu- \-is,|Hal- *|le- lu-|||ia,|Re- *|cor- da-|
 A,6 B,2 C4 D6 | C2 C8 B,4 C8 | C8 x8 | B,8 G,4 C6 | B,2 B,8 A,4 B,8 | B,8 G,8 | B,8 A,8 | C8 B,8 | %23
w: |* * mi- ni|si-||* * * cut|di- xit|* vo-||
 B,8 z4 B4 | G6 A2 x8 | B8 A4 (3:2:1c8 x/24 | (3:2:1B4 B8 A4 B16 x/12 | z16 x4 | F16 | F8 G8 | %30
w: bis. Hal-|le- *||* * lu- ia,||quod|o- por-|
 B8 B8 | B8 A8 | B8 c8 | G8 A8 x4 | B8 A4 (3:2:1G8 x/24 | (3:2:1F4 F8 E4 F16 x/12 | z8 A8 | B8 c8 | %38
w: tu- e-|rit fi-|li- um|ho- mi-|nis cru- ci|* fi- * gi|&|ter- ti-|
 c8 d8 | c8 B8 | A8 B8 | c8 B4 d6 | c2 c8 B4 c8 | z4 c4 A8 x4 | B8 c8 x14 | c8 x12 | %46
w: a *|di- e|re- *|sur- * *|* * ge- re|Hal- le-||lu-|
 A8 B4 (3:2:1c8 x8/3 | (3:2:1B4 B8 A4 B16 x/12 | z8 B8 x6 | G8 B8 x27/4 | A8 A8 | %51
w: |* * * ia|hal-|le- *|* lu-|
 (3:2:2c8 B4 A2 G2 (3:2:1B8 x2/3 | (3:2:1A4 A8 G4 A16- x/12 | A16 | A16 |] x16 | x16 | x16 | x16 |] %59
w: |* * * ia|||||||
V:2
[K:C] z22 |[K:F][M:4/2][K:treble] D8 D8 | B,6 C2 D6 C2 | B,2 G,2 G4 A4 G8 | F4 G8- G8 | %5
w: |Quid que-|ri * * *|* * * tis vi-|ven- tem *|
 z4 E4 F4 G4 x2 | A8 x8 | D8 E4 C4 x4 | E4 F4 D4 (3:2:1G,8 x20/3 | (3:2:1A,4 B,2 C2 D6 E2 F2 x/12 | %10
w: cum mor- tu-|is,|Hal- le- *|||
 G2 A8 A4 F4 | E4 F8 x4 | z4 F4 F8 | D6 E2 F2 G2 A4 | G4 F8 E4 | F8 z4 D6 | E2 F4 G8 E6 x2 | %17
w: |lu- ia|Re- cor-|da- * * * *|* * mi-|ne re-|* * cor- da-|
 F2 G4 A4 x6 | G8 z4 G4 x2 | F4 D4 F8 x6 | D6 E2 F4 G4 | E6 F2 G8 | z4 F4 E4 F4 | G8 D4 G4 | %24
w: * * mi-|ne qui-|a * di-|xit * * *||vo- * *|bis, Hal- le-|
 F4 D4 E6 F2 | G8 (3:2:2A8 G4 x11/8 | F4 E4 F8 x59/4 | D8 z4 D8 | C4 D4 F6 E2 | D4 C8 x4 | D8 _E8 | %31
w: |* lu- *||ia. O-|por- tu- * *||e- *|
 D16 | z4 D4 F8 | D4 G6 F2 F8 | E4 F8 x43/8 | z4 D4 F4 E4 x59/4 | D8 C8 | C8 z4 D4 | D6 E2 F8 | %39
w: rit|fi- li-|um ho- * *|mi- nis|cru- ci- *|* fi-|gi, &|ter- ti- a|
 G12 F4 | G16- | G16 x2 | z4 A4 G8 x6 | E6 F2 G4 A8 | F4 G8 z4 x14 | G4 E8 F8 | G8 z4 F8 | %47
w: * di-|e||re- sur-||ge- re|Hal- le- lu-|ia, hal-|
 E4 x107/4 | F4 A4 G4 (3:2:1A8 x14/3 | (3:2:1G4 F2 E2 F8 D8 x/12 | z4 D4 G4 A4 | G6 F2 E8 x2 | %52
w: le-||* * * lu- ia|hal- le- *||
 D6 E2 F12 x43/4 | F4 x12 | G4 C8 G4 |] E4 F4 D6 E2 | F6 E2 D4 C4 | D4 E4 F8 | E16 |] %59
w: |||||* * lu-|ia|
V:3
[K:C] z22 |[K:F][M:4/2][K:treble-8] G6 A2 B6 c2 | d4 e4 f8 | d8 f4 e2 d2 x4 | c4 c4 d8 x4 | %5
w: |Quid * que *|||* re- tis|
 z4 d8 c4 x2 | B8 A8 | G4 B4 A4 G8 | F4 G8 z4 x8 | G4 G2 A2 B2 c2 d2 e2 x3/4 | f8 e4 d4 x2 | %11
w: vi- ven-|tem *|cum mor- * *|tu- is,|Hal- le * * * * *||
 c2 B2 c8 x4 | B12 A4 | B4 G4 F8 | z8 B8 | (3:2:2c8 B4 A4 G4 x2 | B4 c4 d8 x6 | c6 d2 e4 f4 | %18
w: ||* lu- ia,|Re-|* * cor- *|da- * *|mi- * * *|
 d8 c8 x2 | A4 B4 c8 x6 | B6 c2 d4 B4 | c8 d8 | z4 d8 c4 | d8 B6 c2 | d8 c8 | %25
w: ni *|si- * cut|di- * xit *|vo- bis,|vo- *|bis Hal- le-||
 B2 c2 d2 e2 f6 e2 x11/8 | d4 c2 B2 c8 x59/4 | B8 z8 x4 | F8 F6 G2 | A4 B8 A4 | B8 G4 c4 | %31
w: |* * * lu-|ia,|quod o- *|por- tu- e-|rit fi- li-|
 B4 G6 A2 B2 c2 | d16 | z4 d4 c4 A4 x4 | B8 c4 d4- x11/8 | d4 B4 c6 B2 x59/4 | A4 B4 G8 | F8 A8 | %38
w: * um * * *||ho- mi- *|nis cru- ci-||* * fi-|gi &|
 B8 c8 | d8 c4 A4 | G4 c8 B4 | c8 z4 d4 x2 | f6 e2 d8 x6 | c8 d4 f6 x2 | e2 d2 c2 d8 c16 | %45
w: * ter-|* * ti-|a di- *|e re-|sur- * *||* * * ge- re,|
 z4 c4 d8 x4 | c4 A4 G8 x4 | F4 f4 d4 f6 x51/4 | e2 d4 c8 B8 | G6 A2 B4 c8 x11/4 | B4 c8 z4 | %51
w: Hal- le-|* * lu-|ia, hal- le- *||lu- * * *|* ia,|
 d8 d4 c6 | d2 x115/4 | e4 f6 e2 d4 | c4 d4 B8 |] A16- | A16 | A16 | x16 |] %59
w: hal- le- lu-||||ia.||||
V:4
[K:C] z22 |[K:F][M:4/2][K:bass] G,16 | G,8 D,8 | G,8 F,4 G,4 x4 | A,8 G,8 x4 | z4 G,4 F,4 A,6 | %6
w: |Quid|que- ri-|tis * vi-|ven- tem|vi- ven- *|
 G,2 G,8 F,4 x2 | G,4 G,,4 C,6 B,,2 x4 | A,,4 A,,4 G,,16 | z4 G,4 D,6 E,2 x3/4 | %10
w: |tem cum mor- *|* tu- is,|Hal- le- *|
 F,2 G,2 A,4 B,4 G,4 x2 | F,8 x8 | B,,8 z4 F,4 | G,4 B,8 A,4 | (3:2:2B,8 A,4 G,8 | %15
w: |lu-|ia, Re-|cor- da- *||
 F,6 G,2 A,4 B,4 x2 | G,4 A,4 G,8 x6 | C,8 z8 | G,6 F,2 E,4 C,4 x2 | F,4 G,4 F,8 x6 | B,,12 G,,4 | %21
w: |* * mi-|ni|si- * * *||cut *|
 C,8 G,,4 G,4 | F,4 D,4 A,8 | G,8 z4 G,,4 | B,,8 C,8 | G,,4 G,4 F,4 A,4 x11/8 | B,4 G,4 F,8 x59/4 | %27
w: di- xit vo-||bis. Hal-|le- *||* lu- ia,|
 z4 B,,4 B,,6 C,2 x4 | D,2 E,2 F,4 D,4 B,,4 | F,16 | B,,4 D,4 C,8 | G,,8 z4 G,,4 | %32
w: quod o- *||por-|tu- * e-|rit fi-|
 G,,2 A,,2 B,,2 C,2 D,2 E,2 F,4 | G,4 B,4 A,4 F,4 x4 | G,8 F,4 D,4 x11/8 | G,8 F,4 C,4 x59/4 | %36
w: |li- um ho- mi-|nis * *|cru- ci- *|
 D,4 B,,4 C,8 | z4 F,8 D,4 | G,8 F,4 A,4 | G,8 C,4 F,4 | E,4 C,4 G,8 | z4 C,4 G,8 x2 | %42
w: fi- * gi|& ter-|ti- a di-||* * e|re- sur-|
 F,4 D,4 G,8 x6 | z4 C,4 G,4 D,4 x4 | F,4 A,4 G,8 x14 | C,8 z4 C,4 x4 | F,4 A,4 G,8 x4 | %47
w: * ge- re|re- sur- *|* * ge-|re, Hal-|le- * *|
 C,4 F,4 C,8 x59/4 | z4 F,4 G,4 F,4 x6 | A,4 B,4 F,8 x27/4 | z4 B,4 (3:2:2B,8 A,4 | %51
w: * lu- ia,|hal- le- *|* lu- ia,|hal- le *|
 G,4 F,4 G,8 x2 | C,8 G,8 x59/4 | F,4 D,4 F,8 | C,4 F,8 G,4 |] A,4 F,4 G,8 | C,8 F,6 E,2 | %57
w: ||||* * lu-|ia hal- le-|
 D,4 C,4 D,8 | A,,16 |] %59
w: * * lu-|ia|

